!!!COM: Anon.
!!!OCL: Francis James Child
!!!OPR: The English and Scottish Popular Ballads
!!!OVM: Vol. 1
!!!ONB: Ballad No. 22, Tune No. 1
!!!ONM: No. 22
!!!PDT: 1882
!!!YEM: Public domain.
**kern
*M6/4
{4g
=1
2g
4g
2e
4g
=2
2a
4b
2cc;}
!! Second phrase:
{4a
=3
2g
4g
2g
4g
=4
[2.g
4g]}
4r
!! Third phrase:
{4g
=5
2g
4g
2e
4g
=6
2a
4a
2f}
!! Fourth phrase:
{4a
=7
2g
4g
2g
4g
=8
[2.e
4e]}
4r
====
*-
!!!OCY: Britain; England
!!!PPP: Boston
!!!ODT: <1882
!!!AFR: folk song
!!!AST: monophony
!!!AMT: compound duple
!!!SCA: Child Collection
!!!AIN: vox
!!!EEV: 1.0
!!!RDT: 1987 June
!!!YER: 1994 August 10
!!!VTS: 652652838
